X:229
T:Cowley Manor
C:Jill Lawrence, 1979.  Chords by Colin Hume, 2022.
L:1/4
M:2/2
R:Reel
S:Colin Hume's website,  colinhume.com  - chords can also be printed below the stave.
N:Jill didn't give speed or chords for any of her tunes.  I've struggled with the chords, but please play
N:the bass notes if you can: I hope they add a stately elegance to a tune named after a manor house.
Q:1/2=102
%%MIDI ratio 3 1
%%MIDI chordprog 57     % Trombone
%%MIDI bassprog 58      % Tuba
%%MIDI program 60       % French Horn
K:C
P:A
|: "C"G2 "/B"A>G | "Am"x2 "/G"x2 & C3 G | "C"c>d "Em/B"eB | "F/A"cA "G"BG |\
"F"A2 "Dm"d>B | "G"G3 F | "Am"EA "G/B"GD |1 "C"E4 :|2 "C"C4 ||
P:B
"G"D2 D>E | "Dm"F3 G | "F"A>B "Dm"dc | "G"BA "C/E"AG |\
"G"D2 D>E | "Dm"F3 G | "Em"Be dB | "G"G4 |
P:C
"F"A2 "E7"B2 | "Dm"d3 c | "C"g>e dc | "F"A>B "G7"AG |\
"Dm"D2 "C"E2 | "F"F3 A | "G7"B>cde | "C"c4 |]

